!!!COM: Palestrina, Giovanni Perluigi da
!!!OPR: Missa Vestiva i colli
!!!OTL: Agnus I
**kern	**kern	**kern	**kern	**kern
*Ibass	*Itenor	*Itenor	*Icalto	*Icant
!Bassus	!Tenor 2	!Tenor 1	!Altus	!Cantus
*clefF4	*clefGv2	*clefGv2	*clefG2	*clefG2
*k[]	*k[]	*k[]	*k[]	*k[]
*A:aeo	*A:aeo	*A:aeo	*A:aeo	*A:aeo
*M4/2	*M4/2	*M4/2	*M4/2	*M4/2
=1	=1	=1	=1	=1
0r	0r	0r	1r	1a
.	.	.	1d	1dd
=2	=2	=2	=2	=2
0r	1r	0r	2.a	4cc
.	.	.	.	4b
.	.	.	.	4cc
.	.	.	4b	4dd
.	1A	.	4cc	2.ee
.	.	.	4a	.
.	.	.	2cc	.
.	.	.	.	4cc
=3	=3	=3	=3	=3
0r	1d	0r	2b	4dd
.	.	.	.	4ee
.	.	.	2.a	2ff
.	4c	.	.	2.ee
.	4B	.	4g	.
.	4c	.	4e	.
.	4d	.	4f	8dd
.	.	.	.	8cc
=4	=4	=4	=4	=4
0r	4e	1r	4g	4b
.	4f	.	2a	4a
.	1e	.	.	2b
.	.	.	4g#	.
.	.	1A	1a	2cc
.	2c	.	.	[2ee
=5	=5	=5	=5	=5
1D	1f	1d	[0a	2ee]
.	.	.	.	2dd
2.A	1e	4c	.	1ee
.	.	4B	.	.
.	.	4c	.	.
4B	.	4d	.	.
=6	=6	=6	=6	=6
2c	1r	2e	0a]	2.cc
2A	.	2f	.	.
.	.	.	.	4dd
1c	1A	2e	.	4ee
.	.	.	.	4ff
.	.	[2a	.	[2ee
=7	=7	=7	=7	=7
1B	2.d	2a]	0r	4ee]
.	.	.	.	4dd
.	.	2g#	.	2.dd
.	4e	.	.	.
1A	2f	1a	.	.
.	.	.	.	4cc
.	2e	.	.	2cc
=8	=8	=8	=8	=8
0r	1f	0r	1d	2a
.	.	.	.	1dd
.	1e	.	2.g	.
.	.	.	.	2cc#
.	.	.	4g	.
=9	=9	=9	=9	=9
1r	0d	2.a	4f	0dd
.	.	.	4e	.
.	.	.	4f	.
.	.	4g	4g	.
2r	.	4f	1a	.
.	.	4e	.	.
2d	.	[2f	.	.
=10	=10	=10	=10	=10
2d	2.a	2f]	1A	1ee
2c#	.	1e	.	.
.	4g	.	.	.
1d	4f	.	1r	1a
.	4e	.	.	.
.	[2f	[2d	.	.
=11	=11	=11	=11	=11
2.A	2f]	2d]	0r	[0a
.	1e	2c	.	.
4G	.	.	.	.
2F	.	2f	.	.
2D	[2d	2f	.	.
=12	=12	=12	=12	=12
1A	2d]	1e	0r	1a]
.	2c	.	.	.
1D	2f	1d	.	2r
.	2f	.	.	2dd
=13	=13	=13	=13	=13
0r	1e	1A	2.a	2dd
.	.	.	.	2cc#
.	.	.	4g	.
.	1d	2r	4f	2.dd
.	.	.	4e	.
.	.	2d	[2f	.
.	.	.	.	4ee
=14	=14	=14	=14	=14
0r	1a	2d	2f]	4ff
.	.	.	.	4dd
.	.	2c#	1e	2ee
.	1r	2.d	.	2a
.	.	.	[2d	2a
.	.	4e	.	.
=15	=15	=15	=15	=15
0r	1r	2f	2d]	1a
.	.	2e	2c	.
.	2r	2d	4f	1a
.	.	.	4g	.
.	2a	2f	4a	.
.	.	.	4b	.
=16	=16	=16	=16	=16
1r	2a	1e	2cc	2.ee
.	2g#	.	2b	.
.	.	.	.	4dd
2r	1a	1A	2a	4cc
.	.	.	.	4b
2A	.	.	2e	[2cc
=17	=17	=17	=17	=17
2A	2A	2.e	0r	2cc]
2G#	2B	.	.	1b
.	.	4d	.	.
1A	1e	4c	.	.
.	.	4B	.	.
.	.	2c	.	[2a
=18	=18	=18	=18	=18
2.E	1e	1B	2r	2a]
.	.	.	2e	2g
4D	.	.	.	.
2C	1r	2A	1e	1cc
2AA	.	2A	.	.
=19	=19	=19	=19	=19
0E	1r	2G	2e	2b
.	.	2c	2.e	1a
.	2.e	1B	.	.
.	.	.	4d	.
.	.	.	2B	2g#
.	4e	.	.	.
=20	=20	=20	=20	=20
2AA	2f	1A	2.c	1a
2.A	2e	.	.	.
.	.	.	4B	.
.	1c	2.e	1A	1r
4A	.	.	.	.
2c	.	.	.	.
.	.	4e	.	.
=21	=21	=21	=21	=21
2B	2d	2g	1r	0r
2.A	1c	2f	.	.
.	.	2e	2r	.
4G	.	.	.	.
4F	2c	[2f	[2a	.
4E	.	.	.	.
=22	=22	=22	=22	=22
2D	2d	2f]	4a]	1r
.	.	.	4a	.
2C	1g	2e	2cc	.
2G	.	2d	2b	2r
2A	2e	2c	2a	[2ee
=23	=23	=23	=23	=23
1E	1e	1B	4g	4ee]
.	.	.	4a	4ee
.	.	.	4b	2gg
.	.	.	4g	.
1r	1r	[1A	4a	2ff
.	.	.	4b	.
.	.	.	[2cc	4ee
.	.	.	.	4dd
=24	=24	=24	=24	=24
0r	2.e	1A]	2cc]	4cc
.	.	.	.	4dd
.	.	.	4b	2ee
.	4e	.	4a	.
.	2g	1r	2b	4dd
.	.	.	.	4cc
.	2f	.	[2a	4b
.	.	.	.	4a
=25	=25	=25	=25	=25
1r	1e	0r	2a]	1b
.	.	.	2g#	.
2r	1A	.	2a	2cc#
[2D	.	.	[2f	2dd
=26	=26	=26	=26	=26
4D]	0r	2.A	4f]	1a
4D	.	.	8e	.
.	.	.	8d	.
2F	.	.	4c	.
.	.	4A	4d	.
2E	.	2c	2e	1r
[2D	.	2B	[2f	.
=27	=27	=27	=27	=27
4D]	2.d	2.A	4f]	0r
4E	.	.	4g	.
4F	.	.	1a	.
4G	4d	4B	.	.
4A	2f	4c	.	.
4B	.	4d	.	.
[2c	[2e	4e	2g	.
.	.	4f	.	.
=28	=28	=28	=28	=28
2c]	2e]	2g	1r	0r
2.B	1d	2G	.	.
.	.	1A	2.a	.
4A	.	.	.	.
[2A	2c	.	.	.
.	.	.	4a	.
=29	=29	=29	=29	=29
2A]	2A	1e	2cc	0r
2G	2B	.	1b	.
1F	2c	1A	.	.
.	2d	.	[2a	.
=30	=30	=30	=30	=30
1E	1e	1B	2a]	2.ee
.	.	.	2g#	.
.	.	.	.	4ee
2D	1A	2d	[1a	2ff
2C#	.	2e	.	[2ee
=31	=31	=31	=31	=31
1D	1r	2.f	1a]	2ee]
.	.	.	.	1dd
.	.	4g	.	.
1A	2.e	1a	1r	.
.	.	.	.	2cc#
.	4e	.	.	.
=32	=32	=32	=32	=32
2.D	1f	2r	2.a	1dd
.	.	1A	.	.
4D	.	.	4a	.
2A	2e	.	2cc	1ee
2G#	[2e	2B	[2b	.
=33	=33	=33	=33	=33
1A	4e]	2c	2b]	1r
.	4d	.	.	.
.	2c	2e	1a	.
1E	1B	1e	.	2.ee
.	.	.	2g#	.
.	.	.	.	4ee
=34	=34	=34	=34	=34
2D	2d	1A	[0a	2ff
2C#	2e	.	.	1ee
1D	1f	2r	.	.
.	.	4d	.	[2dd
.	.	4d	.	.
=35	=35	=35	=35	=35
1A	2e	2e	0a]	2dd]
.	1A	2e	.	2cc#
1D	.	1f	.	1dd
.	[2d	.	.	.
=36	=36	=36	=36	=36
[0AA	2d]	[0e	[0a	[0ee
.	4c#	.	.	.
.	4B	.	.	.
.	1c#	.	.	.
=37	=37	=37	=37	=37
0AA]	0c#	0e]	0a]	0ee]
==	==	==	==	==
*-	*-	*-	*-	*-
!!!CDT: 1525/^1526/-1594/2/2
!!!OCY: Italia
!!!AGN: Mass (Parody)
!!!AST: renaissance, vocal
!!!ASW: Madrigal 1566 (Palestrina)
!!!PWK: Masses, Book 9
!!!RNB: Cadence finals: D
!!!YOR: Le Opere Complete, v. 25, p. 54
!!!YOO: Rome, Italy: Fratelli Scalera
!!!END: 1992//
!!!EED: John Miller
!!!YEC: Copyright 2000, John Miller
!!!YEN: United States of America
!!!YEM: Rights to all derivative electronic formats reserved.
!!!YEM: Refer to licensing agreement for further details.
!!!YEM: This file must be accompanied by the licensing agreement.
!!!YEM: A copy of the licensing agreement may be found at http://www.music-cog.ohio-state.edu/HumdrumDatabases/Palestrina/license.txt
!!!EMD: converted to Humdrum by Bret Aarden
